src/next/cmd/sc_insertrows.svg

<svg height="16" width="16" xmlns="http://www.w3.org/2000/svg" xmlns:xlink="http://www.w3.org/1999/xlink"><linearGradient id="a" gradientTransform="matrix(0 1 1 0 -29.34375 -1.70665)" gradientUnits="userSpaceOnUse" x1="105.70665" x2="25.307646" xlink:href="#h" y1="37.34375" y2="37.34375"/><linearGradient id="b"><stop offset="0" stop-color="#fff"/><stop offset="1" stop-color="#fff" stop-opacity="0"/></linearGradient><linearGradient id="c" gradientTransform="matrix(1.0769499 0 0 1.5652564 2.256411 -5.222398)" gradientUnits="userSpaceOnUse" x1="46.048" x2="46.048" y1="110.69923" y2="16.6203"><stop offset="0" stop-color="#c7cdd7"/><stop offset="1" stop-color="#fff"/></linearGradient><linearGradient id="d" gradientUnits="userSpaceOnUse" x1="67.266975" x2="67.266975" y1="168.02724" y2="-88.020844"><stop offset="0"/><stop offset="1" stop-color="#fff"/></linearGradient><linearGradient id="e" gradientUnits="userSpaceOnUse" x1="80" x2="128.00005" xlink:href="#b" y1="72" y2="72"/><mask id="f" maskUnits="userSpaceOnUse"><path d="m0 16h128.00005v112h-128.00005z" fill="url(#e)"/></mask><linearGradient id="g" gradientTransform="matrix(0 -1.8212524 1.8212524 0 -26.863118 199.34584)" gradientUnits="userSpaceOnUse" x1="74.667397" x2="74.667397" y1="80.639534" y2="18.585112"><stop offset="0" stop-color="#0c69ed" stop-opacity="0"/><stop offset=".14999999" stop-color="#1b77ef"/><stop offset=".5" stop-color="#4aa3f6"/><stop offset="1" stop-color="#89ddff"/></linearGradient><linearGradient id="h"><stop offset="0" stop-color="#0968ef"/><stop offset="1" stop-color="#aecffc"/></linearGradient><linearGradient id="i" gradientTransform="matrix(0 -1 -1 0 63.90001 183.9355)" gradientUnits="userSpaceOnUse" x1="113.15723" x2="39.268185" xlink:href="#h" y1="25.786163" y2="25.786163"/><radialGradient id="j" cx="343.99899" cy="92" gradientUnits="userSpaceOnUse" r="36"><stop offset="0" stop-color="#96ff00"/><stop offset="1" stop-color="#609800"/></radialGradient><radialGradient id="k" cx="343.99899" cy="92" gradientTransform="matrix(0 1 -1 0 -39.9985 140.0029)" gradientUnits="userSpaceOnUse" r="36"><stop offset="0" stop-color="#e5ff00"/><stop offset="1" stop-color="#bff500" stop-opacity="0"/></radialGradient><linearGradient id="l" gradientTransform="matrix(0 .7388168 -.7388168 0 -1.522665 63.255682)" gradientUnits="userSpaceOnUse" x1="-80.00296" x2="-45.096584" xlink:href="#b" y1="-131.93112" y2="-131.93112"/><linearGradient id="m" gradientUnits="userSpaceOnUse" x1="96.000008" x2="96.000008" y1="58" y2="5.932847"><stop offset="0" stop-color="#004d00" stop-opacity="0"/><stop offset=".5" stop-color="#004d00"/><stop offset="1" stop-color="#004d00" stop-opacity="0"/></linearGradient><filter id="n"><feGaussianBlur stdDeviation="1.04"/></filter><g transform="matrix(.125 0 0 .125 .0125 .0125)"><g mask="url(#f)" transform="translate(-.1 -8.1)"><path d="m0 24h127.99999v88h-127.99999z" fill="url(#c)"/><path d="m13.59375 56 15.75 15.8125h.03125l7.96875 8h8.21875l-8.03125-8-7.8125-7.8125-8-8zm19.96875 0 8 8 7.8125 7.8125 7.96875 8h8.25l-8.03125-8-7.8125-7.8125-8-8zm18.21875 0 8 8 7.8125 7.8125 8 8h8.1875l-8.03125-8-7.8125-7.8125-8-8zm20.03125 0 8 8 7.8125 7.8125 8 8h8.1875l-8.03125-8-15.84375-15.8125zm20.03125 0 8 8 7.8125 7.8125 7.96875 8h8.25l-8.03125-8-15.84375-15.8125zm18.21875 0 8 8 .0625.09375a.97676879.97676879 0 0 0 .21875.1875l7.78125 7.8125c.5436.578842 1.72822.07428 1.6875-.71875v-5.34375c.0175-.274553-.0875-.554662-.28125-.75l-1.28125-1.28125h-6.625a.97676879.97676879 0 0 0 .1875-.625v-5.34375a.97676879.97676879 0 0 0 -.28125-.75l-1.28125-1.28125zm-102.25 6.1875v8.15625l.8125.84375.625.625 8 8h8.25l-8.0625-8h.0625z" fill="url(#g)"/><path d="m0 24v4 20 4 28 4 20 4 2.3125 1.6875h128v-64-24h-120zm5 8h30v16h-30zm35 0h27v16h-27zm32 0h56v16h-56zm-67 24h30v24h-30zm35 0h27v24h-27zm32 0h56v24h-56zm-67 32h30v16h-30zm35 0h27v16h-27zm32 0h56v16h-56zm-67 24h30zm35 0h27zm32 0h56z" fill="url(#d)"/><g fill="url(#a)"><path d="m0 48h128v8h-120v48h120v8h-128z"/><path d="m0 48h128v8h-120v24h120v8h-128z"/></g></g><path d="m63.71251 98.96674c-.004 2.03628-.84309 4.05844-2.28125 5.5l-3.96875 3.96875c-2.4945 2.50394-6.77472 2.97037-9.75001 1.0625v18.43751c.00077 4.09083-3.72167 7.81327-7.8125 7.8125h-8c-4.09083.00077-7.81327-3.72167-7.8125-7.8125v-18.34376c-2.8974 1.73135-6.92322 1.28851-9.375-1.03125l-4.1875-3.96875c-1.4198-1.34928-2.30211-3.24939-2.41679-5.2047-.11468-1.95532.53945-3.94553 1.79179-5.45155l20-23.999997c1.46025-1.751876 3.71934-2.80981 6-2.80981s4.53975 1.057934 6 2.80981l20.00001 23.999997c1.16533 1.3972 1.81907 3.21189 1.8125 5.03125z" fill="#fff" fill-rule="evenodd" opacity=".743961"/><path d="m35.9 75.779532 20.00001 23.999998-3.97484 3.97484-12.02517-7.79874v31.94437h-8v-31.94437l-11.8239 7.79874-4.1761-3.97484z" fill="url(#i)" fill-rule="evenodd"/><g transform="translate(-.101207 -.098768)"><g transform="matrix(.8749995 0 0 .8749995 16.000063 -.000002)"><circle cx="343.99899" cy="92" fill="url(#j)" r="36" transform="matrix(-.858425 .2300143 -.2300143 -.858425 412.45864 31.85043)"/><circle cx="343.99899" cy="92" fill="url(#k)" r="36" transform="matrix(-.6438188 .1725107 -.1725107 -.6438188 333.34401 31.887831)"/><path d="m96.000027 4.1481901c-11.345716 0-20.826095 8.0116059-23.111114 18.6782149 4.554661 4.245895 13.196893 7.111109 23.111114 7.111109 9.914233 0 18.556453-2.865214 23.111113-7.111109-2.28501-10.666609-11.7654-18.6782149-23.111113-18.6782149z" fill="url(#l)" opacity=".8"/></g><path d="m95.99999 7.9999828v16.0000002h-16v8h16v16h8v-16h16v-8h-16v-16.0000001z" style="fill:none;stroke-width:4;stroke-linecap:round;stroke-linejoin:round;stroke:url(#m);filter:url(#n)"/><path d="m95.99999 7.9999829v16.0000001h-16v8h16v16h8v-16h16v-8h-16v-16.0000001z" fill="#fff" fill-rule="evenodd"/></g></g></svg>

<?xml version="1.0" encoding="UTF-8" standalone="no"?>
<svg
   xmlns:dc="http://purl.org/dc/elements/1.1/"
   xmlns:cc="http://creativecommons.org/ns#"
   xmlns:rdf="http://www.w3.org/1999/02/22-rdf-syntax-ns#"
   xmlns:svg="http://www.w3.org/2000/svg"
   xmlns="http://www.w3.org/2000/svg"
   xmlns:xlink="http://www.w3.org/1999/xlink"
   xmlns:sodipodi="http://sodipodi.sourceforge.net/DTD/sodipodi-0.dtd"
   xmlns:inkscape="http://www.inkscape.org/namespaces/inkscape"
   height="16"
   width="16"
   version="1.1"
   id="svg93"
   sodipodi:docname="sc_insertrows.svg"
   inkscape:version="0.92.4 (unknown)"
   inkscape:export-filename="/home/rizmut/Dokumen/Rizmut/Github/libreoffice-style-karasa-jaga/build/next/cmd/sc_insertrows.png"
   inkscape:export-xdpi="96"
   inkscape:export-ydpi="96">
  <metadata
     id="metadata99">
    <rdf:RDF>
      <cc:Work
         rdf:about="">
        <dc:format>image/svg+xml</dc:format>
        <dc:type
           rdf:resource="http://purl.org/dc/dcmitype/StillImage" />
      </cc:Work>
    </rdf:RDF>
  </metadata>
  <defs
     id="defs97">
    <linearGradient
       inkscape:collect="always"
       xlink:href="#h"
       id="linearGradient103"
       gradientUnits="userSpaceOnUse"
       gradientTransform="matrix(0,1,1,0,-29.34375,-1.70665)"
       x1="105.70665"
       y1="37.34375"
       x2="25.307646"
       y2="37.34375" />
    <linearGradient
       inkscape:collect="always"
       xlink:href="#h"
       id="linearGradient105"
       gradientUnits="userSpaceOnUse"
       gradientTransform="matrix(0,1,1,0,-29.34375,-1.70665)"
       x1="105.70665"
       y1="37.34375"
       x2="25.307646"
       y2="37.34375" />
  </defs>
  <sodipodi:namedview
     pagecolor="#ffffff"
     bordercolor="#666666"
     borderopacity="1"
     objecttolerance="10"
     gridtolerance="10"
     guidetolerance="10"
     inkscape:pageopacity="0"
     inkscape:pageshadow="2"
     inkscape:window-width="1366"
     inkscape:window-height="714"
     id="namedview95"
     showgrid="true"
     inkscape:zoom="28.358909"
     inkscape:cx="5.4444668"
     inkscape:cy="6.5269937"
     inkscape:window-x="0"
     inkscape:window-y="28"
     inkscape:window-maximized="1"
     inkscape:current-layer="g91">
    <inkscape:grid
       type="xygrid"
       id="grid101" />
  </sodipodi:namedview>
  <linearGradient
     id="a">
    <stop
       offset="0"
       stop-color="#fff"
       id="stop2" />
    <stop
       offset="1"
       stop-color="#fff"
       stop-opacity="0"
       id="stop4" />
  </linearGradient>
  <linearGradient
     id="b"
     gradientTransform="matrix(1.0769499,0,0,1.5652564,2.256411,-5.222398)"
     gradientUnits="userSpaceOnUse"
     x1="46.048"
     x2="46.048"
     y1="110.69923"
     y2="16.6203">
    <stop
       offset="0"
       stop-color="#c7cdd7"
       id="stop7" />
    <stop
       offset="1"
       stop-color="#fff"
       id="stop9" />
  </linearGradient>
  <linearGradient
     id="c"
     gradientUnits="userSpaceOnUse"
     x1="67.266975"
     x2="67.266975"
     y1="168.02724"
     y2="-88.020844">
    <stop
       offset="0"
       id="stop12" />
    <stop
       offset="1"
       stop-color="#fff"
       id="stop14" />
  </linearGradient>
  <linearGradient
     id="d"
     gradientUnits="userSpaceOnUse"
     x1="80"
     x2="128.00005"
     xlink:href="#a"
     y1="72"
     y2="72" />
  <mask
     id="e"
     maskUnits="userSpaceOnUse">
    <path
       d="m0 16h128.00005v112h-128.00005z"
       fill="url(#d)"
       id="path18" />
  </mask>
  <linearGradient
     id="f"
     gradientTransform="matrix(0,1,1,0,-29.34375,-1.70665)"
     gradientUnits="userSpaceOnUse"
     x1="105.70665"
     x2="25.307646"
     xlink:href="#h"
     y1="37.34375"
     y2="37.34375" />
  <linearGradient
     id="g"
     gradientTransform="matrix(0,-1.8212524,1.8212524,0,-26.863118,199.34584)"
     gradientUnits="userSpaceOnUse"
     x1="74.667397"
     x2="74.667397"
     y1="80.639534"
     y2="18.585112">
    <stop
       offset="0"
       stop-color="#0c69ed"
       stop-opacity="0"
       id="stop22" />
    <stop
       offset=".14999999"
       stop-color="#1b77ef"
       id="stop24" />
    <stop
       offset=".5"
       stop-color="#4aa3f6"
       id="stop26" />
    <stop
       offset="1"
       stop-color="#89ddff"
       id="stop28" />
  </linearGradient>
  <linearGradient
     id="h">
    <stop
       offset="0"
       stop-color="#0968ef"
       id="stop31" />
    <stop
       offset="1"
       stop-color="#aecffc"
       id="stop33" />
  </linearGradient>
  <linearGradient
     id="i"
     gradientTransform="matrix(0,-1,-1,0,63.90001,183.9355)"
     gradientUnits="userSpaceOnUse"
     x1="113.15723"
     x2="39.268185"
     xlink:href="#h"
     y1="25.786163"
     y2="25.786163" />
  <radialGradient
     id="j"
     cx="343.99899"
     cy="92"
     gradientUnits="userSpaceOnUse"
     r="36"
     xlink:href="#k" />
  <linearGradient
     id="k"
     gradientUnits="userSpaceOnUse"
     x1="328.12448"
     x2="336.98077"
     y1="120.81158"
     y2="87.759453">
    <stop
       offset="0"
       stop-color="#96ff00"
       id="stop38" />
    <stop
       offset="1"
       stop-color="#609800"
       id="stop40" />
  </linearGradient>
  <radialGradient
     id="l"
     cx="343.99899"
     cy="92"
     gradientTransform="matrix(0 1 -1 0 -39.9985 140.0029)"
     gradientUnits="userSpaceOnUse"
     r="36">
    <stop
       offset="0"
       stop-color="#e5ff00"
       id="stop43" />
    <stop
       offset="1"
       stop-color="#bff500"
       stop-opacity="0"
       id="stop45" />
  </radialGradient>
  <linearGradient
     id="m"
     gradientTransform="matrix(0 .7388168 -.7388168 0 -1.522665 63.255682)"
     gradientUnits="userSpaceOnUse"
     x1="-80.00296"
     x2="-45.096584"
     xlink:href="#a"
     y1="-131.93112"
     y2="-131.93112" />
  <linearGradient
     id="n"
     gradientUnits="userSpaceOnUse"
     x1="96.000008"
     x2="96.000008"
     y1="58"
     y2="5.932847">
    <stop
       offset="0"
       stop-color="#004d00"
       stop-opacity="0"
       id="stop49" />
    <stop
       offset=".5"
       stop-color="#004d00"
       id="stop51" />
    <stop
       offset="1"
       stop-color="#004d00"
       stop-opacity="0"
       id="stop53" />
  </linearGradient>
  <filter
     id="o">
    <feGaussianBlur
       stdDeviation="1.04"
       id="feGaussianBlur56" />
  </filter>
  <g
     transform="matrix(.125 0 0 .125 .0125 .0125)"
     id="g91">
    <g
       mask="url(#e)"
       transform="translate(-0.1,-8.1)"
       id="g71">
      <path
         d="m 0,24 h 127.99999 v 88 H 0 Z"
         id="path59"
         style="fill:url(#b)"
         inkscape:connector-curvature="0" />
      <path
         d="m 13.59375,56 15.75,15.8125 H 29.375 l 7.96875,8 h 8.21875 l -8.03125,-8 -7.8125,-7.8125 -8,-8 z m 19.96875,0 8,8 7.8125,7.8125 7.96875,8 h 8.25 l -8.03125,-8 L 49.75,64 l -8,-8 z m 18.21875,0 8,8 7.8125,7.8125 8,8 h 8.1875 L 75.75,71.8125 67.9375,64 l -8,-8 z m 20.03125,0 8,8 7.8125,7.8125 8,8 h 8.1875 l -8.03125,-8 L 79.9375,56 Z m 20.03125,0 8,8 7.8125,7.8125 7.96875,8 h 8.25 l -8.03125,-8 L 100,56 Z m 18.21875,0 8,8 0.0625,0.09375 a 0.97676879,0.97676879 0 0 0 0.21875,0.1875 l 7.78125,7.8125 c 0.5436,0.578842 1.72822,0.07428 1.6875,-0.71875 v -5.34375 c 0.0175,-0.274553 -0.0875,-0.554662 -0.28125,-0.75 L 126.25,64 h -6.625 a 0.97676879,0.97676879 0 0 0 0.1875,-0.625 v -5.34375 a 0.97676879,0.97676879 0 0 0 -0.28125,-0.75 L 118.25,56 Z m -102.25,6.1875 v 8.15625 l 0.8125,0.84375 0.625,0.625 8,8 h 8.25 l -8.0625,-8 H 17.5 Z"
         id="path61"
         style="fill:url(#g)"
         inkscape:connector-curvature="0" />
      <path
         d="m 0,24 v 4 20 4 28 4 20 4 2.3125 V 112 H 128 V 48 24 H 8 Z m 5,8 H 35 V 48 H 5 Z m 35,0 H 67 V 48 H 40 Z m 32,0 h 56 V 48 H 72 Z M 5,56 H 35 V 80 H 5 Z m 35,0 H 67 V 80 H 40 Z m 32,0 h 56 V 80 H 72 Z M 5,88 h 30 v 16 H 5 Z m 35,0 h 27 v 16 H 40 Z m 32,0 h 56 v 16 H 72 Z M 5,112 h 30 z m 35,0 h 27 z m 32,0 h 56 z"
         id="path63"
         style="fill:url(#c)"
         inkscape:connector-curvature="0" />
      <g
         id="g69"
         style="fill:url(#f)">
        <path
           d="m 0,48 h 128 v 8 H 8 v 48 h 120 v 8 H 0 Z"
           id="path65"
           style="fill:url(#linearGradient103)"
           inkscape:connector-curvature="0" />
        <path
           d="m 0,48 h 128 v 8 H 8 v 24 h 120 v 8 H 0 Z"
           id="path67"
           style="fill:url(#linearGradient105)"
           inkscape:connector-curvature="0" />
      </g>
    </g>
    <path
       d="m 63.71251,98.96674 c -0.004,2.03628 -0.84309,4.05844 -2.28125,5.5 l -3.96875,3.96875 c -2.4945,2.50394 -6.77472,2.97037 -9.75001,1.0625 v 18.43751 c 7.7e-4,4.09083 -3.72167,7.81327 -7.8125,7.8125 h -8 c -4.09083,7.7e-4 -7.81327,-3.72167 -7.8125,-7.8125 v -18.34376 c -2.8974,1.73135 -6.92322,1.28851 -9.375,-1.03125 L 10.525,104.59174 C 9.1052,103.24246 8.22289,101.34235 8.10821,99.38704 7.99353,97.43172 8.64766,95.44151 9.9,93.93549 l 20,-23.999997 c 1.46025,-1.751876 3.71934,-2.80981 6,-2.80981 2.28066,0 4.53975,1.057934 6,2.80981 L 61.90001,93.93549 c 1.16533,1.3972 1.81907,3.21189 1.8125,5.03125 z"
       id="path73"
       inkscape:connector-curvature="0"
       style="opacity:0.74396099;fill:#ffffff;fill-rule:evenodd" />
    <path
       d="M 35.9,75.779532 55.90001,99.77953 51.92517,103.75437 39.9,95.95563 V 127.9 h -8 V 95.95563 L 20.0761,103.75437 15.9,99.77953 Z"
       id="path75"
       style="fill:url(#i);fill-rule:evenodd"
       inkscape:connector-curvature="0" />
    <g
       transform="translate(-.101207 -.098768)"
       id="g89">
      <g
         transform="matrix(.8749995 0 0 .8749995 16.000063 -.000002)"
         id="g83">
        <circle
           cx="343.99899"
           cy="92"
           fill="url(#j)"
           r="36"
           transform="matrix(-.858425 .2300143 -.2300143 -.858425 412.45864 31.85043)"
           id="circle77" />
        <circle
           cx="343.99899"
           cy="92"
           fill="url(#l)"
           r="36"
           transform="matrix(-.6438188 .1725107 -.1725107 -.6438188 333.34401 31.887831)"
           id="circle79" />
        <path
           d="m96.000027 4.1481901c-11.345716 0-20.826095 8.0116059-23.111114 18.6782149 4.554661 4.245895 13.196893 7.111109 23.111114 7.111109 9.914233 0 18.556453-2.865214 23.111113-7.111109-2.28501-10.666609-11.7654-18.6782149-23.111113-18.6782149z"
           fill="url(#m)"
           opacity=".8"
           id="path81" />
      </g>
      <path
         d="m95.99999 7.9999828v16.0000002h-16v8h16v16h8v-16h16v-8h-16v-16.0000001z"
         style="fill:none;stroke-width:4;stroke-linecap:round;stroke-linejoin:round;stroke:url(#n);filter:url(#o)"
         id="path85" />
      <path
         d="m95.99999 7.9999829v16.0000001h-16v8h16v16h8v-16h16v-8h-16v-16.0000001z"
         fill="#fff"
         fill-rule="evenodd"
         id="path87" />
    </g>
  </g>
</svg>
